X: 3042
Q:"Reel."
M: C
L: 1/8
K: G
uc |\
g |\
bgaf gdde |
=fdc_B A=FFg |\
[1 (b/a/g) (a/g/f) gddg | egfa gGG :|\
[2 GBAc Bdce | dgfa gGG |]


